libs/icons/src/svg/preview-on.svg

<svg width="16" height="16" viewBox="0 0 16 16" fill="none" xmlns="http://www.w3.org/2000/svg">
<g clip-path="url(#clip0_3_3791)">
<path fill-rule="evenodd" clip-rule="evenodd" d="M1.58551 7.81826C1.65557 7.92431 1.74126 8.05012 1.84188 8.191C2.16608 8.64488 2.64058 9.24844 3.24162 9.84947C4.46215 11.07 6.10428 12.1819 8.00013 12.1819C9.89597 12.1819 11.5381 11.07 12.7586 9.84947C13.3597 9.24844 13.8342 8.64488 14.1584 8.191C14.259 8.05012 14.3447 7.92431 14.4147 7.81826C14.3447 7.71221 14.259 7.5864 14.1584 7.44552C13.8342 6.99164 13.3597 6.38808 12.7586 5.78705C11.5381 4.56652 9.89597 3.45459 8.00013 3.45459C6.10428 3.45459 4.46215 4.56652 3.24162 5.78705C2.64058 6.38808 2.16608 6.99164 1.84188 7.44552C1.74126 7.5864 1.65557 7.71221 1.58551 7.81826ZM15.2729 7.81826C15.9044 7.45743 15.9041 7.45697 15.9041 7.45697L15.9029 7.4549L15.9004 7.45052L15.8921 7.4363C15.8852 7.42445 15.8754 7.40788 15.8628 7.3869C15.8377 7.34497 15.8013 7.28539 15.754 7.21067C15.6595 7.06134 15.5213 6.85105 15.342 6.60008C14.9844 6.0994 14.4589 5.43022 13.7872 4.75852C12.4622 3.43358 10.468 2.00003 8.00013 2.00003C5.5323 2.00003 3.53803 3.43358 2.21309 4.75852C1.54139 5.43022 1.01588 6.0994 0.65826 6.60008C0.478996 6.85105 0.340734 7.06134 0.246256 7.21067C0.198989 7.28539 0.162601 7.34497 0.137439 7.3869C0.124856 7.40788 0.115074 7.42445 0.108135 7.4363L0.0998634 7.45052L0.0973356 7.4549L0.0964754 7.4564C0.0964754 7.4564 0.095885 7.45743 0.72734 7.81826L0.095885 7.45743C-0.0318803 7.68102 -0.0318803 7.9555 0.095885 8.17909L0.72734 7.81826C0.095885 8.17909 0.095885 8.17909 0.095885 8.17909L0.0973356 8.18162L0.0998634 8.18601L0.108135 8.20022C0.115074 8.21207 0.124856 8.22864 0.137439 8.24962C0.162601 8.29155 0.198989 8.35113 0.246256 8.42585C0.340734 8.57518 0.478996 8.78547 0.65826 9.03644C1.01588 9.53712 1.54139 10.2063 2.21309 10.878C3.53803 12.2029 5.5323 13.6365 8.00013 13.6365C10.468 13.6365 12.4622 12.2029 13.7872 10.878C14.4589 10.2063 14.9844 9.53712 15.342 9.03644C15.5213 8.78547 15.6595 8.57518 15.754 8.42585C15.8013 8.35113 15.8377 8.29155 15.8628 8.24962C15.8754 8.22864 15.8852 8.21207 15.8921 8.20022L15.9004 8.18601L15.9029 8.18162L15.9038 8.18012C15.9038 8.18012 15.9044 8.17909 15.2729 7.81826ZM15.2729 7.81826L15.9044 8.17909C16.0321 7.9555 16.0319 7.68056 15.9041 7.45697L15.2729 7.81826Z" fill="#202327"/>
<path fill-rule="evenodd" clip-rule="evenodd" d="M8.00013 6.3637C7.1968 6.3637 6.54557 7.01493 6.54557 7.81826C6.54557 8.62159 7.1968 9.27282 8.00013 9.27282C8.80346 9.27282 9.45468 8.62159 9.45468 7.81826C9.45468 7.01493 8.80346 6.3637 8.00013 6.3637ZM5.09101 7.81826C5.09101 6.2116 6.39347 4.90915 8.00013 4.90915C9.60679 4.90915 10.9092 6.2116 10.9092 7.81826C10.9092 9.42492 9.60679 10.7274 8.00013 10.7274C6.39347 10.7274 5.09101 9.42492 5.09101 7.81826Z" fill="#202327"/>
</g>
<defs>
<clipPath id="clip0_3_3791">
<rect width="16" height="16" fill="white"/>
</clipPath>
</defs>
</svg>

<svg xmlns="http://www.w3.org/2000/svg" viewBox="0 0 16 16" class="sageicon"><path fill-rule="evenodd" d="M1.585 7.818A13.344 13.344 0 0 0 3.241 9.85c1.221 1.221 2.863 2.333 4.76 2.333 1.895 0 3.537-1.112 4.758-2.333a13.347 13.347 0 0 0 1.656-2.03 13.348 13.348 0 0 0-1.656-2.031C11.539 4.566 9.896 3.454 8 3.454c-1.896 0-3.538 1.111-4.758 2.332a13.345 13.345 0 0 0-1.657 2.031Zm13.688 0 .631-.361-.001-.002-.003-.005-.008-.014a13.813 13.813 0 0 0-.138-.225 14.797 14.797 0 0 0-1.967-2.452C12.462 3.434 10.467 2 8 2 5.532 2 3.538 3.434 2.213 4.759A14.8 14.8 0 0 0 .246 7.21a8.859 8.859 0 0 0-.138.225L.1 7.45l-.003.005v.001s-.001.001.63.362l-.631-.36a.727.727 0 0 0 0 .721l.631-.36-.631.36.001.003.003.004.008.014a5.202 5.202 0 0 0 .138.226 14.8 14.8 0 0 0 1.967 2.452c1.325 1.325 3.32 2.758 5.787 2.758 2.468 0 4.462-1.433 5.787-2.758a14.797 14.797 0 0 0 1.967-2.452 8.904 8.904 0 0 0 .138-.226l.008-.014.003-.004V8.18l-.63-.362Zm0 0 .631.361a.728.728 0 0 0 0-.722l-.631.361Z"/><path fill-rule="evenodd" d="M8 6.364a1.455 1.455 0 1 0 0 2.909 1.455 1.455 0 0 0 0-2.91ZM5.091 7.818a2.91 2.91 0 1 1 5.818 0 2.91 2.91 0 0 1-5.818 0Z"/></svg>
